X: 12
T: No_118_Manido'_Listens_to_Me.krn
N: Derived from No_118_Manido'_Listens_to_Me.krn
%%abc-version 2.0
%%abcx-abcm2ps-target-version 5.9.1 (29 Sep 2008)
%%abc-creator hum2abc beta
%%abcx-conversion-date 2019/03/15 08:29:13
%%humdrum-veritas 178760099
%%humdrum-veritas-data 3144971739
%%linebreak <none>
%%barnumbers 0
L: 1/8
M: 3/4
%%staves {1 2}
V: 1 clef=bass
V: 2 clef=bass
K: A
[V:1] E2 [I:setbarnb 1]| 
[V:2] z G,, | 
[V:1] E4E3/C/ | 
[V:2] (3!accent!G,, z G,, (3!accent!G,, z G,, (3!accent!G,, z G,, | 
[V:1] (3!accent!CA,-A,A,2C2 | 
[V:2] z6 | 
[V:1] A,4A,3/A,/ | 
[V:2] z6 | 
[V:1] A,4E2 | 
[V:2] z6 | 
[V:1] E4E3/C/ | 
[V:2] z6 | 
[V:1] (3!accent!CA,-A,A,2C2 | 
[V:2] z6 | 
[V:1] A,4A,3/A,/ | 
[V:2] z6 | 
[V:1] A,4C2 | 
[V:2] z6 | 
[V:1] C4E3/C/ | 
[V:2] z6 | 
[V:1] C/A,3/A,2C2 | 
[V:2] z6 | 
[V:1] A,4A,3/F,/ | 
[V:2] z6 | 
[V:1] (3E,E,-E, E,/C,3/ E,/C,3/ | 
[V:2] z6 | 
[V:1] A,,3/A,,/A,,4- | 
[V:2] z6 | 
[V:1] A,,7/E/ E3/E/ | 
[V:2] z6 | 
[V:1] E4E3/C/ | 
[V:2] z6 | 
[V:1] (3CA,-A,A,2C2 | 
[V:2] z6 | 
[V:1] A,4A,3/A,/ | 
[V:2] z6 | 
[V:1] A,4C2 | 
[V:2] z6 | 
[V:1] C4E3/C/ | 
[V:2] z6 | 
[V:1] (3CA,-A,A,2C2 | 
[V:2] z6 | 
[V:1] A,4A,3/F,/ | 
[V:2] z6 | 
[V:1] (3E,E,-E, E,/C,3/ E,/C,3/ | 
[V:2] z6 | 
[V:1] A,,3/A,,/A,,4- | 
[V:2] z6 | 
[V:1] [M:2/4]A,,4 :|]  
[V:2] [M:2/4]z4 :|]  



